X: 1699
T: Segâh-Mâye Seyir
C: Şefik Gürmeriç
O: Turkey
F: http://compmusic.upf.edu/node/140
N: segah-maye--seyir--sofyan--1--sefik_gurmeric
N: makam= segah-maye
N: form= seyir
N: usul= sofyan = 4/4
M: 4/4
L: 1/16
K: C _1/4B _1/4e ^f 
Q: 1/4=60
%%MIDI tuningsystem comma53
G6^A2 B8  | B2cd c2_2/4B2 B3A G4  | z2=f2 e2d2 d3c B2c2  | \
w:   |   |   | 
d12 z4  | 
w:   | 
e2=f2 e2f2 g2f2 e2d2  | d=fed c2d2 c2B^A B4  | \
w:   |   | 
z4 c2d2 d4 e4  | 
w:   | 
=fede d2c_2/4B A8  | G2c2 B2^A2 B4 c4  | \
w:   |   | 
dcde d2c2 B3A G4  | 
w:   | 
z2=f2 e2d2 d3c dccB  | B16  | |


